; generated by PrusaSlicer 2.5.0+win64 on 2023-02-03 at 10:28:02 UTC

; 

; external perimeters extrusion width = 0.60mm
; perimeters extrusion width = 0.50mm
; infill extrusion width = 0.50mm
; solid infill extrusion width = 0.50mm
; top infill extrusion width = 0.45mm
; support material extrusion width = 0.38mm
; first layer extrusion width = 0.42mm

M73 P0 R153
M73 Q0 S155
M107
;TYPE:Custom
M862.3 P "MK3S" ; printer model check
M862.1 P0.4 ; nozzle diameter check
M115 U3.9.3 ; tell printer latest fw version
G90 ; use absolute coordinates
M83 ; extruder relative mode
M104 S215 ; set extruder temp
M140 S60 ; set bed temp
M190 S60 ; wait for bed temp
M109 S215 ; wait for extruder temp
G28 W ; home all without mesh bed level
G80 ; mesh bed leveling
G1 Y-3.0 F1000.0 ; go outside print area
G92 E0.0
G1 X60.0 E9.0 F1000.0 ; intro line
G1 X100.0 E12.5 F1000.0 ; intro line
G92 E0.0
M221 S95

; Don't change E values below. Excessive value can damage the printer.

M907 E538 ; set extruder motor current
G21 ; set units to millimeters
G90 ; use absolute coordinates
M83 ; use relative distances for extrusion
M900 K0.05 ; Filament gcode LA 1.5
M900 K30 ; Filament gcode LA 1.0
M107
;LAYER_CHANGE
;Z:0.2
;HEIGHT:0.2
;BEFORE_LAYER_CHANGE
G92 E0.0
;0.2


G1 E-.8 F2100
G1 Z.4 F10800
;AFTER_LAYER_CHANGE
;0.2
G1 X94.202 Y39.86
G1 Z.2
G1 E.8 F2100
M204 S1000
;TYPE:Skirt/Brim
;WIDTH:0.42
G1 F1200
G1 X94.63 Y39.109 E.02712
G1 X95.152 Y38.42 E.02712
G1 X95.76 Y37.804 E.02713
G1 X96.444 Y37.273 E.02713
G1 X97.19 Y36.836 E.02712
G1 X97.987 Y36.501 E.02713
G1 X98.821 Y36.272 E.02711
G1 X99.699 Y36.152 E.02776
G1 X149.86 Y36.137 E1.57278
G1 X150.988 Y36.236 E.0355
G1 X152.067 Y36.52 E.03498
G1 X153.098 Y36.99 E.03552
G1 X154.02 Y37.617 E.03497
G1 X154.834 Y38.404 E.03549
G1 X155.494 Y39.304 E.03499
G1 X155.999 Y40.316 E.03549
G1 X156.328 Y41.421 E.03615
G1 X160.419 Y87.595 E1.45341
G1 X160.428 Y130.748 E1.35303
G1 X160.222 Y131.715 E.031
G1 X155.798 Y141.64 E.3407
G1 X155.359 Y142.408 E.02776
M73 Q0 S154
G1 X154.834 Y143.097 E.02714
G1 X154.196 Y143.734 E.02827
G1 X153.491 Y144.27 E.02777
G1 X152.74 Y144.698 E.02713
G1 X151.903 Y145.036 E.02828
G1 X151.045 Y145.254 E.02777
G1 X150.186 Y145.354 E.02713
G1 X100.081 Y145.363 E1.57099
G1 X98.617 Y145.183 E.04626
G1 X97.26 Y144.698 E.04517
G1 X96.225 Y144.072 E.03795
G1 X95.321 Y143.268 E.03793
G1 X94.578 Y142.312 E.03795
G1 X94.036 Y141.271 E.03679
G1 X89.672 Y126.798 E.47399
G1 X89.572 Y126.116 E.02159
G1 X89.577 Y101.537 E.77067
G1 X93.557 Y42.242 E1.86334
G1 X93.765 Y41.029 E.03859
G1 X94.181 Y39.917 E.03722
; printing object Compressor Chassis id:0 copy 0
;WIPE_START
G1 F8640
G1 X94.63 Y39.109 E-.21341
G1 X95.152 Y38.42 E-.1997
G1 X95.76 Y37.804 E-.19976
G1 X96.263 Y37.413 E-.14713
;WIPE_END
G1 E-.04 F2100
G1 Z.6 F10800
G1 X109.374 Y40.633
G1 Z.2
G1 E.8 F2100
;TYPE:Support material
G1 F1200
G1 X110.187 Y40.68 E.02554
G1 X110.993 Y40.804 E.02554
G1 X111.853 Y41.026 E.02786
G1 X112.617 Y41.308 E.02555
G1 X113.416 Y41.698 E.02786
G1 X114.109 Y42.126 E.02555
G1 X114.757 Y42.619 E.02554
G1 X115.356 Y43.172 E.02554
G1 X115.898 Y43.78 E.02554
G1 X116.38 Y44.437 E.02555
G1 X116.831 Y45.203 E.02785
G1 X117.172 Y45.943 E.02555
G1 X117.44 Y46.712 E.02554
G1 X117.634 Y47.503 E.02554
G1 X117.758 Y48.383 E.02786
G1 X117.79 Y49.197 E.02555
G1 X117.743 Y50.011 E.02554
G1 X117.62 Y50.816 E.02555
G1 X117.419 Y51.605 E.02554
G1 X117.144 Y52.372 E.02555
G1 X116.796 Y53.109 E.02554
G1 X116.38 Y53.809 E.02555
G1 X115.898 Y54.466 E.02554
G1 X115.303 Y55.126 E.02786
G1 X114.7 Y55.674 E.02555
M73 P0 R152
G1 X114.048 Y56.162 E.02554
G1 X113.351 Y56.584 E.02555
G1 X112.549 Y56.967 E.02787
G1 X111.782 Y57.242 E.02554
G1 X110.993 Y57.443 E.02554
G1 X110.187 Y57.567 E.02555
G1 X109.3 Y57.613 E.02786
G1 X108.413 Y57.567 E.02786
G1 X107.607 Y57.443 E.02554
G1 X106.818 Y57.242 E.02554
G1 X106.051 Y56.967 E.02554
G1 X105.249 Y56.584 E.02787
G1 X104.552 Y56.162 E.02554
G1 X103.9 Y55.674 E.02554
G1 X103.297 Y55.127 E.02554
G1 X102.749 Y54.523 E.02555
G1 X102.262 Y53.871 E.02554
G1 X101.804 Y53.109 E.02787
G1 X101.456 Y52.372 E.02554
G1 X101.16 Y51.534 E.02786
G1 X100.966 Y50.743 E.02554
G1 X100.849 Y49.937 E.02554
G1 X100.81 Y49.123 E.02554
G1 X100.849 Y48.309 E.02554
G1 X100.966 Y47.503 E.02554
G1 X101.16 Y46.712 E.02555
G1 X101.456 Y45.874 E.02786
G1 X101.804 Y45.137 E.02554
G1 X102.262 Y44.375 E.02787
G1 X102.749 Y43.723 E.02554
G1 X103.297 Y43.12 E.02554
G1 X103.9 Y42.572 E.02555
G1 X104.552 Y42.085 E.02554
G1 X105.249 Y41.662 E.02554
G1 X106.051 Y41.279 E.02786
G1 X106.818 Y41.004 E.02554
G1 X107.68 Y40.789 E.02787
G1 X108.486 Y40.672 E.02555
G1 X109.318 Y40.633 E.02609
G1 X117.039 Y52.177 F10800
G1 F1200
G1 X117.039 Y46.567 E.1759
G1 X116.857 Y46.07 E.01661
G1 X116.62 Y45.539 E.01821
G1 X116.62 Y52.707 E.22473
G1 X116.201 Y53.459 E.027
G1 X116.201 Y44.787 E.27191
G1 X115.783 Y44.183 E.02306
G1 X115.783 Y54.064 E.30981
G1 X115.364 Y54.57 E.0206
G1 X115.364 Y43.677 E.34155
G1 X114.945 Y43.243 E.01889
G1 X114.945 Y55.003 E.36871
G1 X114.526 Y55.378 E.01764
G1 X114.526 Y42.868 E.39224
G1 X114.107 Y42.541 E.01667
G1 X114.107 Y55.706 E.41277
G1 X113.688 Y55.992 E.01591
G1 X113.688 Y42.254 E.43073
G1 X113.269 Y42.004 E.0153
G1 X113.269 Y56.242 E.44643
G1 X112.85 Y56.46 E.01481
G1 X112.85 Y41.786 E.46009
G1 X112.431 Y41.598 E.0144
G1 X112.431 Y56.648 E.4719
G1 X112.012 Y56.809 E.01407
G1 X112.012 Y41.437 E.48199
G1 X111.593 Y41.302 E.0138
G1 X111.593 Y56.945 E.49047
G1 X111.174 Y57.055 E.01359
G1 X111.174 Y41.191 E.49742
G1 X110.755 Y41.103 E.01342
G1 X110.755 Y57.143 E.5029
G1 X110.336 Y57.208 E.01329
G1 X110.336 Y41.039 E.50697
G1 X109.917 Y40.996 E.0132
G1 X109.917 Y57.25 E.50964
G1 X109.498 Y57.271 E.01315
G1 X109.498 Y40.975 E.51096
G1 X109.299 Y40.973 E.00623
G1 X109.079 Y40.976 E.00691
G1 X109.079 Y57.271 E.51092
G1 X108.66 Y57.249 E.01316
G1 X108.66 Y40.998 E.50954
G1 X108.241 Y41.042 E.01321
G1 X108.241 Y57.205 E.50678
G1 X107.822 Y57.139 E.0133
G1 X107.822 Y41.108 E.50264
G1 X107.403 Y41.196 E.01343
G1 X107.403 Y57.05 E.49708
G1 X106.984 Y56.938 E.0136
G1 X106.984 Y41.308 E.49005
G1 X106.565 Y41.445 E.01382
G1 X106.565 Y56.801 E.48148
G1 X106.146 Y56.639 E.01409
G1 X106.146 Y41.608 E.47129
G1 X105.727 Y41.797 E.01442
G1 X105.727 Y56.449 E.45939
G1 X105.308 Y56.229 E.01483
G1 X105.308 Y42.017 E.44561
G1 X104.889 Y42.269 E.01533
G1 X104.889 Y55.977 E.4298
G1 X104.47 Y55.688 E.01595
G1 X104.47 Y42.558 E.4117
G1 X104.051 Y42.888 E.01672
G1 X104.051 Y55.359 E.39102
G1 X103.632 Y54.98 E.0177
G1 X103.632 Y43.266 E.3673
G1 X103.213 Y43.703 E.01898
G1 X103.213 Y54.544 E.33991
G1 X102.794 Y54.033 E.02071
G1 X102.794 Y44.213 E.30789
G1 X102.375 Y44.824 E.02323
G1 X102.375 Y53.422 E.26957
G1 X101.956 Y52.659 E.02729
G1 X101.956 Y45.587 E.22172
G1 X101.716 Y46.136 E.01877
G1 X101.537 Y46.639 E.01674
G1 X101.537 Y52.118 E.17178
;WIPE_START
G1 F8640
G1 X101.537 Y48.826 E-.76
;WIPE_END
G1 E-.04 F2100
G1 Z.6 F10800
G1 X109.374 Y71.633
G1 Z.2
G1 E.8 F2100
G1 F1200
G1 X110.187 Y71.68 E.02554
G1 X110.993 Y71.804 E.02554
G1 X111.853 Y72.026 E.02787
G1 X112.617 Y72.308 E.02555
G1 X113.351 Y72.662 E.02554
G1 X114.109 Y73.126 E.02787
G1 X114.757 Y73.619 E.02555
G1 X115.356 Y74.172 E.02554
G1 X115.898 Y74.78 E.02554
G1 X116.38 Y75.437 E.02555
G1 X116.796 Y76.137 E.02554
G1 X117.172 Y76.943 E.02786
G1 X117.44 Y77.712 E.02555
G1 X117.648 Y78.576 E.02786
G1 X117.758 Y79.383 E.02555
G1 X117.79 Y80.197 E.02555
G1 X117.735 Y81.084 E.02786
G1 X117.604 Y81.888 E.02554
G1 X117.397 Y82.676 E.02554
G1 X117.115 Y83.44 E.02555
G1 X116.761 Y84.174 E.02554
G1 X116.297 Y84.932 E.02786
G1 X115.804 Y85.581 E.02555
G1 X115.251 Y86.179 E.02554
G1 X114.643 Y86.721 E.02555
G1 X113.986 Y87.203 E.02555
G1 X113.22 Y87.654 E.02786
G1 X112.481 Y87.995 E.02554
G1 X111.64 Y88.284 E.02787
G1 X110.847 Y88.471 E.02554
G1 X110.04 Y88.581 E.02554
G1 X109.226 Y88.613 E.02555
G1 X108.339 Y88.559 E.02786
G1 X107.535 Y88.428 E.02554
G1 X106.747 Y88.22 E.02554
G1 X105.983 Y87.938 E.02554
G1 X105.184 Y87.549 E.02786
G1 X104.491 Y87.12 E.02555
G1 X103.843 Y86.627 E.02554
G1 X103.244 Y86.074 E.02554
G1 X102.656 Y85.408 E.02786
G1 X102.18 Y84.747 E.02554
G1 X101.769 Y84.043 E.02555
G1 X101.428 Y83.303 E.02554
G1 X101.16 Y82.534 E.02554
G1 X100.966 Y81.743 E.02554
G1 X100.849 Y80.937 E.02554
G1 X100.81 Y80.049 E.02787
G1 X100.865 Y79.162 E.02786
G1 X100.996 Y78.358 E.02554
G1 X101.203 Y77.57 E.02555
G1 X101.485 Y76.806 E.02554
G1 X101.874 Y76.007 E.02787
G1 X102.303 Y75.314 E.02554
G1 X102.796 Y74.666 E.02555
G1 X103.349 Y74.068 E.02554
G1 X103.957 Y73.525 E.02555
G1 X104.614 Y73.043 E.02554
G1 X105.38 Y72.592 E.02786
G1 X106.12 Y72.251 E.02554
G1 X106.889 Y71.983 E.02554
G1 X107.68 Y71.789 E.02554
G1 X108.486 Y71.672 E.02554
G1 X109.318 Y71.633 E.0261
G1 X117.039 Y83.177 F10800
G1 F1200
G1 X117.039 Y77.567 E.1759
G1 X116.857 Y77.07 E.01661
G1 X116.62 Y76.539 E.01821
G1 X116.62 Y83.707 E.22473
G1 X116.201 Y84.459 E.027
G1 X116.201 Y75.787 E.27191
G1 X115.783 Y75.183 E.02306
G1 X115.783 Y85.064 E.30981
G1 X115.364 Y85.57 E.0206
G1 X115.364 Y74.677 E.34155
G1 X114.945 Y74.243 E.01889
G1 X114.945 Y86.003 E.36871
G1 X114.526 Y86.378 E.01764
G1 X114.526 Y73.868 E.39224
G1 X114.107 Y73.541 E.01667
G1 X114.107 Y86.706 E.41277
G1 X113.688 Y86.992 E.01591
G1 X113.688 Y73.254 E.43073
G1 X113.269 Y73.004 E.0153
G1 X113.269 Y87.242 E.44643
G1 X112.85 Y87.46 E.01481
G1 X112.85 Y72.786 E.46009
G1 X112.431 Y72.598 E.0144
G1 X112.431 Y87.648 E.4719
G1 X112.012 Y87.809 E.01407
G1 X112.012 Y72.437 E.48199
G1 X111.593 Y72.302 E.0138
G1 X111.593 Y87.945 E.49047
G1 X111.174 Y88.055 E.01359
G1 X111.174 Y72.191 E.49742
G1 X110.755 Y72.103 E.01342
G1 X110.755 Y88.143 E.5029
G1 X110.336 Y88.208 E.01329
G1 X110.336 Y72.039 E.50697
G1 X109.917 Y71.996 E.0132
G1 X109.917 Y88.25 E.50964
G1 X109.498 Y88.271 E.01315
G1 X109.498 Y71.975 E.51096
G1 X109.299 Y71.973 E.00623
G1 X109.079 Y71.976 E.00691
G1 X109.079 Y88.271 E.51092
G1 X108.66 Y88.249 E.01316
G1 X108.66 Y71.998 E.50954
G1 X108.241 Y72.042 E.01321
G1 X108.241 Y88.205 E.50678
G1 X107.822 Y88.139 E.0133
G1 X107.822 Y72.108 E.50264
G1 X107.403 Y72.196 E.01343
G1 X107.403 Y88.05 E.49708
G1 X106.984 Y87.938 E.0136
G1 X106.984 Y72.308 E.49005
G1 X106.565 Y72.445 E.01382
M73 Q0 S153
G1 X106.565 Y87.801 E.48148
G1 X106.146 Y87.639 E.01409
G1 X106.146 Y72.608 E.47129
G1 X105.727 Y72.797 E.01442
G1 X105.727 Y87.449 E.45939
G1 X105.308 Y87.229 E.01483
G1 X105.308 Y73.017 E.44561
G1 X104.889 Y73.269 E.01533
G1 X104.889 Y86.977 E.4298
G1 X104.47 Y86.688 E.01595
G1 X104.47 Y73.558 E.4117
G1 X104.051 Y73.888 E.01672
G1 X104.051 Y86.359 E.39102
G1 X103.632 Y85.98 E.0177
G1 X103.632 Y74.266 E.3673
G1 X103.213 Y74.703 E.01898
G1 X103.213 Y85.544 E.33991
G1 X102.794 Y85.033 E.02071
G1 X102.794 Y75.213 E.30789
G1 X102.375 Y75.824 E.02323
G1 X102.375 Y84.422 E.26957
G1 X101.956 Y83.659 E.02729
G1 X101.956 Y76.587 E.22172
G1 X101.717 Y77.136 E.01877
G1 X101.537 Y77.639 E.01674
G1 X101.537 Y83.118 E.17178
;WIPE_START
G1 F8640
G1 X101.537 Y79.826 E-.76
;WIPE_END
G1 E-.04 F2100
G1 Z.6 F10800
G1 X140.774 Y71.633
G1 Z.2
G1 E.8 F2100
G1 F1200
G1 X141.587 Y71.68 E.02554
G1 X142.393 Y71.804 E.02554
G1 X143.253 Y72.026 E.02787
G1 X144.017 Y72.308 E.02555
G1 X144.751 Y72.662 E.02554
G1 X145.509 Y73.126 E.02787
G1 X146.157 Y73.619 E.02555
G1 X146.755 Y74.172 E.02554
G1 X147.344 Y74.838 E.02786
G1 X147.82 Y75.499 E.02554
G1 X148.231 Y76.203 E.02555
G1 X148.572 Y76.943 E.02554
G1 X148.84 Y77.712 E.02554
G1 X149.034 Y78.503 E.02555
G1 X149.151 Y79.309 E.02554
G1 X149.19 Y80.197 E.02787
G1 X149.135 Y81.084 E.02786
G1 X149.004 Y81.888 E.02554
G1 X148.797 Y82.676 E.02554
G1 X148.515 Y83.44 E.02554
G1 X148.125 Y84.239 E.02787
G1 X147.697 Y84.932 E.02554
G1 X147.204 Y85.58 E.02554
G1 X146.651 Y86.179 E.02554
G1 X145.985 Y86.767 E.02786
G1 X145.324 Y87.243 E.02554
G1 X144.62 Y87.654 E.02554
G1 X143.88 Y87.995 E.02554
G1 X143.111 Y88.263 E.02554
G1 X142.247 Y88.471 E.02787
G1 X141.44 Y88.581 E.02554
M73 P0 R151
G1 X140.626 Y88.613 E.02555
G1 X139.739 Y88.559 E.02786
G1 X138.935 Y88.428 E.02554
G1 X138.147 Y88.22 E.02554
G1 X137.383 Y87.938 E.02554
G1 X136.584 Y87.549 E.02786
G1 X135.891 Y87.12 E.02555
G1 X135.243 Y86.627 E.02554
G1 X134.644 Y86.074 E.02554
G1 X134.102 Y85.466 E.02554
G1 X133.58 Y84.747 E.02786
G1 X133.169 Y84.043 E.02554
G1 X132.828 Y83.304 E.02555
G1 X132.56 Y82.534 E.02555
G1 X132.366 Y81.743 E.02554
G1 X132.242 Y80.863 E.02786
G1 X132.21 Y80.049 E.02555
G1 X132.257 Y79.236 E.02554
G1 X132.38 Y78.431 E.02554
G1 X132.603 Y77.57 E.02787
G1 X132.885 Y76.806 E.02554
G1 X133.275 Y76.007 E.02786
G1 X133.703 Y75.314 E.02554
G1 X134.196 Y74.666 E.02555
G1 X134.749 Y74.068 E.02554
G1 X135.415 Y73.479 E.02785
G1 X136.076 Y73.003 E.02555
G1 X136.78 Y72.592 E.02555
G1 X137.52 Y72.251 E.02555
G1 X138.289 Y71.983 E.02554
G1 X139.08 Y71.789 E.02554
G1 X139.886 Y71.672 E.02555
G1 X140.718 Y71.633 E.0261
G1 X148.463 Y83.118 F10800
G1 F1200
G1 X148.463 Y77.639 E.17178
G1 X148.283 Y77.136 E.01675
G1 X148.044 Y76.587 E.01876
G1 X148.044 Y83.659 E.22172
G1 X147.625 Y84.422 E.02729
G1 X147.625 Y75.824 E.26957
G1 X147.206 Y75.213 E.02323
G1 X147.206 Y85.033 E.30789
G1 X146.787 Y85.544 E.02071
G1 X146.787 Y74.703 E.33991
G1 X146.368 Y74.266 E.01898
G1 X146.368 Y85.98 E.3673
G1 X145.949 Y86.359 E.0177
G1 X145.949 Y73.888 E.39102
G1 X145.53 Y73.558 E.01672
G1 X145.53 Y86.688 E.4117
G1 X145.111 Y86.977 E.01595
G1 X145.111 Y73.269 E.4298
G1 X144.692 Y73.017 E.01533
G1 X144.692 Y87.229 E.44561
G1 X144.273 Y87.449 E.01483
M73 P1 R151
G1 X144.273 Y72.797 E.45939
G1 X143.854 Y72.608 E.01442
M73 Q1 S153
G1 X143.854 Y87.639 E.47129
G1 X143.435 Y87.801 E.01409
G1 X143.435 Y72.445 E.48148
G1 X143.016 Y72.308 E.01382
G1 X143.016 Y87.938 E.49005
G1 X142.597 Y88.05 E.0136
G1 X142.597 Y72.196 E.49708
G1 X142.178 Y72.108 E.01343
G1 X142.178 Y88.139 E.50264
G1 X141.759 Y88.205 E.0133
G1 X141.759 Y72.042 E.50678
G1 X141.34 Y71.998 E.01321
G1 X141.34 Y88.249 E.50954
G1 X140.921 Y88.271 E.01316
G1 X140.921 Y71.976 E.51092
G1 X140.699 Y71.973 E.00696
G1 X140.502 Y71.975 E.00618
G1 X140.502 Y88.271 E.51096
G1 X140.083 Y88.25 E.01315
G1 X140.083 Y71.996 E.50964
G1 X139.664 Y72.039 E.0132
G1 X139.664 Y88.208 E.50697
G1 X139.245 Y88.143 E.01329
G1 X139.245 Y72.103 E.5029
G1 X138.826 Y72.191 E.01342
G1 X138.826 Y88.055 E.49742
G1 X138.407 Y87.945 E.01359
G1 X138.407 Y72.302 E.49047
G1 X137.988 Y72.437 E.0138
G1 X137.988 Y87.809 E.48199
G1 X137.569 Y87.648 E.01407
G1 X137.569 Y72.598 E.4719
G1 X137.15 Y72.786 E.0144
G1 X137.15 Y87.46 E.46009
G1 X136.731 Y87.242 E.01481
G1 X136.731 Y73.004 E.44643
G1 X136.312 Y73.254 E.0153
G1 X136.312 Y86.992 E.43073
G1 X135.893 Y86.706 E.01591
G1 X135.893 Y73.541 E.41277
G1 X135.474 Y73.868 E.01667
G1 X135.474 Y86.378 E.39224
G1 X135.055 Y86.003 E.01764
G1 X135.055 Y74.243 E.36871
G1 X134.636 Y74.677 E.01889
G1 X134.636 Y85.57 E.34155
G1 X134.217 Y85.064 E.0206
G1 X134.217 Y75.183 E.30981
G1 X133.799 Y75.787 E.02306
G1 X133.799 Y84.459 E.27191
G1 X133.38 Y83.707 E.027
G1 X133.38 Y76.539 E.22473
G1 X133.143 Y77.07 E.01821
G1 X132.961 Y77.567 E.01661
G1 X132.961 Y83.177 E.1759
;WIPE_START
G1 F8640
G1 X132.961 Y79.886 E-.76
;WIPE_END
G1 E-.04 F2100
G1 Z.6 F10800
G1 X140.774 Y40.633
G1 Z.2
G1 E.8 F2100
G1 F1200
G1 X141.587 Y40.68 E.02554
G1 X142.393 Y40.804 E.02554
G1 X143.253 Y41.026 E.02787
G1 X144.017 Y41.308 E.02555
G1 X144.816 Y41.698 E.02786
G1 X145.509 Y42.126 E.02555
G1 X146.157 Y42.619 E.02554
G1 X146.755 Y43.172 E.02554
G1 X147.344 Y43.838 E.02786
G1 X147.82 Y44.499 E.02554
G1 X148.231 Y45.203 E.02555
G1 X148.572 Y45.943 E.02554
G1 X148.84 Y46.712 E.02554
G1 X149.034 Y47.503 E.02555
G1 X149.151 Y48.309 E.02554
G1 X149.19 Y49.197 E.02787
G1 X149.143 Y50.011 E.02554
G1 X149.02 Y50.816 E.02554
G1 X148.819 Y51.605 E.02555
G1 X148.544 Y52.372 E.02554
G1 X148.196 Y53.109 E.02554
G1 X147.739 Y53.871 E.02787
G1 X147.251 Y54.523 E.02554
G1 X146.703 Y55.126 E.02554
G1 X146.1 Y55.674 E.02554
G1 X145.448 Y56.162 E.02554
G1 X144.751 Y56.584 E.02555
G1 X143.949 Y56.967 E.02787
